papirus/22x22/apps/gshutdown.svg

<svg height="22" viewBox="0 0 22 22" width="22" xmlns="http://www.w3.org/2000/svg"><g transform="translate(-.99999994 -1)"><circle cx="12" cy="11.999996" fill="#4d4d4d" r="9.9999962"/><circle cx="12" cy="12.5" opacity=".2" r="8"/><circle cx="12" cy="12" fill="#cb4444" r="8"/><path d="m11 5.5v5h2v-3.9082031-1.0917969zm-.109375 1.1074219c-.09389.019067-.188379.038959-.28125.0625.09287-.023541.187358-.043433.28125-.0625zm2.578125.0800781c.104112.026692.206066.055645.308594.087891-.102528-.0322464-.204482-.061199-.308594-.087891zm-3.169922.0625c-.08766.02712-.175396.05678-.261719.087891.08632-.031111.17406-.060771.261719-.087891zm3.783203.1269531c.05427.019816.108433.041125.16211.0625-.05368-.021375-.107838-.042684-.16211-.0625zm-4.2617185.0390625c-2.3013439.89734-3.8175862 3.1138844-3.8203125 5.5839844.0000004 3.313708 2.6862919 6 6 6 3.313708 0 6-2.686292 6-6-.003-2.398898-1.435039-4.5663082-3.640625-5.5097656l-.775391 1.8378906a4 4 0 0 1 2.416016 3.671875 4 4 0 0 1 -4 4 4 4 0 0 1 -4-4 4 4 0 0 1  2.464844-3.6894531z" opacity=".2"/><path d="m11 5v5h2v-3.9082031-1.0917969zm-.109375 1.1074219c-.09389.019067-.188379.038959-.28125.0625.09287-.023541.187358-.043433.28125-.0625zm2.578125.0800781c.104112.026692.206066.055645.308594.087891-.102528-.0322464-.204482-.061199-.308594-.087891zm-3.169922.0625c-.08766.02712-.175396.05678-.261719.087891.08632-.031111.17406-.060771.261719-.087891zm3.783203.1269531c.05427.019816.108433.041125.16211.0625-.05368-.021375-.107838-.042684-.16211-.0625zm-4.2617185.0390625c-2.3013439.89734-3.8175862 3.1138841-3.8203125 5.5839844.0000004 3.313708 2.6862919 6 6 6 3.313708 0 6-2.686292 6-6-.003-2.3988981-1.435039-4.5663082-3.640625-5.5097656l-.775391 1.8378906a4 4 0 0 1 2.416016 3.671875 4 4 0 0 1 -4 4 4 4 0 0 1 -4-4 4 4 0 0 1  2.464844-3.6894531z" fill="#fff"/><path d="m12 2.0000085a9.9999958 9.9999958 0 0 0 -9.9296833 8.9257775 9.9999958 9.4999875 0 0 1  9.9296833-8.4257777 9.9999958 9.4999875 0 0 1  9.960933 8.7236297 9.9999958 9.9999958 0 0 0 -9.960933-9.2236295zm9.960933 9.2236295a9.9999958 9.9999958 0 0 1  .03906.776366 9.9999958 9.4999875 0 0 0 -.03906-.776366zm-19.8906163-.297852a9.9999958 9.4999875 0 0 0 -.024414.196289 9.9999958 9.9999958 0 0 1  .024414-.196289zm-.024414.196289a9.9999958 9.9999958 0 0 0 -.045899.877929 9.9999958 9.4999875 0 0 1  .045898-.877929z" fill="#fff" opacity=".2"/><path d="m12 22a9.9999958 9.9999958 0 0 1 -9.9296833-8.925796 9.9999958 9.4999875 0 0 0  9.9296833 8.425796 9.9999958 9.4999875 0 0 0  9.960933-8.723646 9.9999958 9.9999958 0 0 1 -9.960933 9.223646zm9.960933-9.223646a9.9999958 9.9999958 0 0 0  .03906-.77635 9.9999958 9.4999875 0 0 1 -.03907.77635zm-19.8906163.29785a9.9999958 9.4999875 0 0 1 -.024414-.19625 9.9999958 9.9999958 0 0 0  .024414.19625zm-.024414-.19625a9.9999958 9.9999958 0 0 1 -.045899-.87795 9.9999958 9.4999875 0 0 0  .045899.87795z" opacity=".3"/></g></svg>

<?xml version="1.0" encoding="UTF-8" standalone="no"?>
<svg
   xmlns:dc="http://purl.org/dc/elements/1.1/"
   xmlns:cc="http://creativecommons.org/ns#"
   xmlns:rdf="http://www.w3.org/1999/02/22-rdf-syntax-ns#"
   xmlns:svg="http://www.w3.org/2000/svg"
   xmlns="http://www.w3.org/2000/svg"
   xmlns:sodipodi="http://sodipodi.sourceforge.net/DTD/sodipodi-0.dtd"
   xmlns:inkscape="http://www.inkscape.org/namespaces/inkscape"
   version="1.1"
   id="svg2"
   viewBox="0 0 22 22"
   height="22"
   width="22"
   inkscape:version="0.91 r13725"
   sodipodi:docname="gshutdown.svg">
  <sodipodi:namedview
     pagecolor="#ffffff"
     bordercolor="#666666"
     borderopacity="1"
     objecttolerance="10"
     gridtolerance="10"
     guidetolerance="10"
     inkscape:pageopacity="0"
     inkscape:pageshadow="2"
     inkscape:window-width="1600"
     inkscape:window-height="849"
     id="namedview16"
     showgrid="false"
     inkscape:zoom="7.03"
     inkscape:cx="19.184186"
     inkscape:cy="9.7314619"
     inkscape:window-x="0"
     inkscape:window-y="0"
     inkscape:window-maximized="1"
     inkscape:current-layer="svg2" />
  <defs
     id="defs4" />
  <metadata
     id="metadata7">
    <rdf:RDF>
      <cc:Work
         rdf:about="">
        <dc:format>image/svg+xml</dc:format>
        <dc:type
           rdf:resource="http://purl.org/dc/dcmitype/StillImage" />
        <dc:title></dc:title>
      </cc:Work>
    </rdf:RDF>
  </metadata>
  <g
     id="g4203"
     transform="translate(-0.99999994,-1)">
    <circle
       r="9.9999962"
       cy="11.999996"
       cx="12"
       id="path4136"
       style="opacity:1;fill:#4d4d4d;fill-opacity:1;stroke:none;stroke-width:10;stroke-miterlimit:4;stroke-dasharray:none;stroke-opacity:1" />
    <circle
       r="8"
       cy="12.5"
       cx="12"
       id="circle4201"
       style="opacity:0.2;fill:#000000;fill-opacity:1;stroke:none;stroke-width:10;stroke-miterlimit:4;stroke-dasharray:none;stroke-opacity:1" />
    <circle
       style="opacity:1;fill:#cb4444;fill-opacity:1;stroke:none;stroke-width:10;stroke-miterlimit:4;stroke-dasharray:none;stroke-opacity:1"
       id="circle4138"
       cx="12"
       cy="12"
       r="8" />
    <path
       inkscape:connector-curvature="0"
       style="opacity:0.2;fill:#000000;fill-opacity:1;stroke:none;stroke-width:10;stroke-miterlimit:4;stroke-dasharray:none;stroke-opacity:1"
       d="m 11,5.5 0,5 2,0 L 13,6.5917969 13,5.5 l -2,0 z m -0.109375,1.1074219 c -0.09389,0.019067 -0.188379,0.038959 -0.28125,0.0625 0.09287,-0.023541 0.187358,-0.043433 0.28125,-0.0625 z M 13.46875,6.6875 c 0.104112,0.026692 0.206066,0.055645 0.308594,0.087891 C 13.674816,6.7431446 13.572862,6.714192 13.46875,6.6875 Z M 10.298828,6.75 C 10.211168,6.77712 10.123432,6.80678 10.037109,6.837891 10.123429,6.80678 10.211169,6.77712 10.298828,6.75 Z m 3.783203,0.1269531 c 0.05427,0.019816 0.108433,0.041125 0.16211,0.0625 -0.05368,-0.021375 -0.107838,-0.042684 -0.16211,-0.0625 z M 9.8203125,6.9160156 C 7.5189686,7.8133556 6.0027263,10.0299 6,12.5 c 4e-7,3.313708 2.6862919,6 6,6 3.313708,0 6,-2.686292 6,-6 C 17.997,10.101102 16.564961,7.9336918 14.359375,6.9902344 L 13.583984,8.828125 A 4,4 0 0 1 16,12.5 a 4,4 0 0 1 -4,4 4,4 0 0 1 -4,-4 4,4 0 0 1 2.464844,-3.6894531 L 9.8203125,6.9160156 Z"
       id="path4199" />
    <path
       id="circle4142"
       d="m 11,5 0,5 2,0 L 13,6.0917969 13,5 11,5 Z m -0.109375,1.1074219 c -0.09389,0.019067 -0.188379,0.038959 -0.28125,0.0625 0.09287,-0.023541 0.187358,-0.043433 0.28125,-0.0625 z M 13.46875,6.1875 c 0.104112,0.026692 0.206066,0.055645 0.308594,0.087891 C 13.674816,6.2431446 13.572862,6.214192 13.46875,6.1875 Z M 10.298828,6.25 C 10.211168,6.27712 10.123432,6.30678 10.037109,6.337891 10.123429,6.30678 10.211169,6.27712 10.298828,6.25 Z m 3.783203,0.1269531 c 0.05427,0.019816 0.108433,0.041125 0.16211,0.0625 -0.05368,-0.021375 -0.107838,-0.042684 -0.16211,-0.0625 z M 9.8203125,6.4160156 C 7.5189686,7.3133556 6.0027263,9.5298997 6,12 c 4e-7,3.313708 2.6862919,6 6,6 3.313708,0 6,-2.686292 6,-6 C 17.997,9.6011019 16.564961,7.4336918 14.359375,6.4902344 L 13.583984,8.328125 A 4,4 0 0 1 16,12 4,4 0 0 1 12,16 4,4 0 0 1 8,12 4,4 0 0 1 10.464844,8.3105469 L 9.8203125,6.4160156 Z"
       style="opacity:1;fill:#ffffff;fill-opacity:1;stroke:none;stroke-width:10;stroke-miterlimit:4;stroke-dasharray:none;stroke-opacity:1"
       inkscape:connector-curvature="0" />
    <path
       id="circle4156"
       d="M 12,2.0000085 A 9.9999958,9.9999958 0 0 0 2.0703167,10.925786 9.9999958,9.4999875 0 0 1 12,2.5000083 9.9999958,9.4999875 0 0 1 21.960933,11.223638 9.9999958,9.9999958 0 0 0 12,2.0000085 Z m 9.960933,9.2236295 a 9.9999958,9.9999958 0 0 1 0.03906,0.776366 9.9999958,9.4999875 0 0 0 -0.03906,-0.776366 z M 2.0703167,10.925786 a 9.9999958,9.4999875 0 0 0 -0.024414,0.196289 9.9999958,9.9999958 0 0 1 0.024414,-0.196289 z m -0.024414,0.196289 a 9.9999958,9.9999958 0 0 0 -0.045899,0.877929 9.9999958,9.4999875 0 0 1 0.045898,-0.877929 z"
       style="opacity:0.2;fill:#ffffff;fill-opacity:1;stroke:none;stroke-width:10;stroke-miterlimit:4;stroke-dasharray:none;stroke-opacity:1"
       inkscape:connector-curvature="0" />
    <path
       style="opacity:0.3;fill:#000000;fill-opacity:1;stroke:none;stroke-width:10;stroke-miterlimit:4;stroke-dasharray:none;stroke-opacity:1"
       d="M 12,22 A 9.9999958,9.9999958 0 0 1 2.0703167,13.074204 9.9999958,9.4999875 0 0 0 12,21.5 9.9999958,9.4999875 0 0 0 21.960933,12.776354 9.9999958,9.9999958 0 0 1 12,22 Z m 9.960933,-9.223646 a 9.9999958,9.9999958 0 0 0 0.03906,-0.77635 9.9999958,9.4999875 0 0 1 -0.03907,0.77635 z m -19.8906163,0.29785 a 9.9999958,9.4999875 0 0 1 -0.024414,-0.19625 9.9999958,9.9999958 0 0 0 0.024414,0.19625 z m -0.024414,-0.19625 a 9.9999958,9.9999958 0 0 1 -0.045899,-0.87795 9.9999958,9.4999875 0 0 0 0.045899,0.87795 z"
       id="path4164"
       inkscape:connector-curvature="0" />
  </g>
</svg>
